X:47
%%NRChange 2023-06-05
T:Marsj etter Erling Kjøk
O:Norway
R:March
Z:mheiman@northernroots.org
M:4/4
Q:1/4=60
K:Cmaj
W:Part order: A1,2 BB CC BB A3
W:Note: Part A1 drones on a C chord
P:A1,2
zG || "C"c2 cB/2c/2d2 "G7"de/2f/2 | "C"e2 "F"c>c "C"c2 "C7/E"eg |\
"F"fe dc "D7/F#"ed cB |"G7"d2 G>G G2 GE/2G/2 |
"C"c2 cB/2c/2 "G7"d2 de/2f/2 | "C"e2 "F"c>c "C"c2 "C7/E"eg |\
"F"fe dc "G7"ed cB | "C"c2 "F"c>c "C"c2 :|
P:B
|: "C7/E"cd/2e/2| "F"A2 A>A "Dm7"Ac BA | "Em"G2 G>A "Am"G3 A |\
"Dm7"GA Bc "Gsus9"de fd | "C"c2 "G7"B/2A/2B/2d/2 "C"c2 :|
P:C
|:e|"C"(3g-gg (3ece "Cmaj7"(3g-gg (3ece | |"F"(3f-ff (3faf "Dm7"d2-(3d-dB |
"Gsus9"(3d-dd (3BGB "G"(3d-dd "G#dim"(3def | "Asus2"(3fe-e c4z:|
P:A3
zG || "C"c2 cB/2c/2d2 "G7"de/2f/2 | "C"e2 "F"c>c "C"c2 "C7/E"eg |\
"F"fe dc "D7/F#"ed cB |"G7"d2 G>G G2 GE/2G/2 |
"Am"c2 "Am/G" cB/2c/2 "F"d2 "E7"de/2f/2 | "Am"e2 "Am/G"c>c "F"c2 "Em"eg |\
"Dm7"fe "Em"dc "F"ed "G7"cB | "Am"c2 "Am/G"c>c "D7/F#"Hc2 eg|
"Dm7"fe "Em7"dc "Fmaj7"ed "Gsus9"cB | "C"c2 "Csus"c>c "C"c4|]

